X:29
T:B029-  Blue Cap
S:via BBBM, from 'Dancing Master', 1651
Q:1/4=120
L:1/4
M:6/4
K:Adorian
D|GGdggB|A2AE2B|GGdBBe|A3/2 d/2^cd2:|d|\
BBGAAE|D2Bc2e|ddBdef|gdBA2d|BBGAAE|\
D2Bc2e|ddBdef|gdBA2|]

